icons/svg/shields/h_topo_alpine_hut_shield.svg

<?xml version="1.0" encoding="UTF-8" standalone="no"?>
<!-- Created with Inkscape (http://www.inkscape.org/) -->

<svg
   xmlns:dc="http://purl.org/dc/elements/1.1/"
   xmlns:cc="http://creativecommons.org/ns#"
   xmlns:rdf="http://www.w3.org/1999/02/22-rdf-syntax-ns#"
   xmlns:svg="http://www.w3.org/2000/svg"
   xmlns="http://www.w3.org/2000/svg"
   xmlns:sodipodi="http://sodipodi.sourceforge.net/DTD/sodipodi-0.dtd"
   xmlns:inkscape="http://www.inkscape.org/namespaces/inkscape"
   version="1.0"
   width="16"
   height="16"
   id="svg2"
   sodipodi:version="0.32"
   inkscape:version="0.91 r13725"
   sodipodi:docname="h_topo_alpine_hut_shield.svg"
   inkscape:output_extension="org.inkscape.output.svg.inkscape">
  <metadata
     id="metadata10">
    <rdf:RDF>
      <cc:Work
         rdf:about="">
        <dc:format>image/svg+xml</dc:format>
        <dc:type
           rdf:resource="http://purl.org/dc/dcmitype/StillImage" />
        <cc:license
           rdf:resource="http://web.resource.org/cc/PublicDomain" />
        <dc:language>en</dc:language>
        <dc:title />
      </cc:Work>
    </rdf:RDF>
  </metadata>
  <sodipodi:namedview
     inkscape:window-height="1006"
     inkscape:window-width="1920"
     inkscape:pageshadow="2"
     inkscape:pageopacity="0.0"
     guidetolerance="10.0"
     gridtolerance="10.0"
     objecttolerance="10.0"
     borderopacity="1.0"
     bordercolor="#666666"
     pagecolor="#ffffff"
     id="base"
     showgrid="false"
     inkscape:zoom="33.937499"
     inkscape:cx="12.036287"
     inkscape:cy="8.1023806"
     inkscape:window-x="1920"
     inkscape:window-y="0"
     inkscape:current-layer="svg2"
     inkscape:window-maximized="1"
     showguides="true"
     inkscape:guide-bbox="true" />
  <defs
     id="defs4">
    <inkscape:perspective
       sodipodi:type="inkscape:persp3d"
       inkscape:vp_x="0 : 290 : 1"
       inkscape:vp_y="0 : 1000 : 0"
       inkscape:vp_z="580 : 290 : 1"
       inkscape:persp3d-origin="290 : 193.33333 : 1"
       id="perspective12" />
    <style
       type="text/css"
       id="style6">
   
    .fil0 {fill:#EF7900}
   
  </style>
    <inkscape:perspective
       id="perspective6807"
       inkscape:persp3d-origin="29.116032 : 19.410688 : 1"
       inkscape:vp_z="58.232063 : 29.116032 : 1"
       inkscape:vp_y="0 : 1000 : 0"
       inkscape:vp_x="0 : 29.116032 : 1"
       sodipodi:type="inkscape:persp3d" />
    <inkscape:perspective
       id="perspective6954"
       inkscape:persp3d-origin="290 : 193.33333 : 1"
       inkscape:vp_z="580 : 290 : 1"
       inkscape:vp_y="0 : 1000 : 0"
       inkscape:vp_x="0 : 290 : 1"
       sodipodi:type="inkscape:persp3d" />
    <inkscape:perspective
       id="perspective2541"
       inkscape:persp3d-origin="240 : 160 : 1"
       inkscape:vp_z="480 : 240 : 1"
       inkscape:vp_y="0 : 1000 : 0"
       inkscape:vp_x="0 : 240 : 1"
       sodipodi:type="inkscape:persp3d" />
    <inkscape:perspective
       id="perspective2750"
       inkscape:persp3d-origin="215 : 143.33333 : 1"
       inkscape:vp_z="430 : 215 : 1"
       inkscape:vp_y="0 : 1000 : 0"
       inkscape:vp_x="0 : 215 : 1"
       sodipodi:type="inkscape:persp3d" />
    <inkscape:perspective
       id="perspective3730"
       inkscape:persp3d-origin="88.929146 : 101.19778 : 1"
       inkscape:vp_z="177.85829 : 151.79668 : 1"
       inkscape:vp_y="0 : 1000 : 0"
       inkscape:vp_x="0 : 151.79668 : 1"
       sodipodi:type="inkscape:persp3d" />
    <marker
       inkscape:stockid="TriangleInM"
       orient="auto"
       refY="0"
       refX="0"
       id="TriangleInM-3"
       style="overflow:visible"
       inkscape:isstock="true">
      <path
         inkscape:connector-curvature="0"
         id="path4303-6"
         d="m 5.77,0 -8.65,5 0,-10 8.65,5 z"
         style="fill:#ffffff;fill-opacity:1;fill-rule:evenodd;stroke:#ffffff;stroke-width:1pt;stroke-opacity:1"
         transform="scale(-0.4,-0.4)" />
    </marker>
    <marker
       inkscape:stockid="TriangleOutM"
       orient="auto"
       refY="0"
       refX="0"
       id="TriangleOutM-7"
       style="overflow:visible"
       inkscape:isstock="true">
      <path
         inkscape:connector-curvature="0"
         id="path4312-5"
         d="m 5.77,0 -8.65,5 0,-10 8.65,5 z"
         style="fill:#ffffff;fill-opacity:1;fill-rule:evenodd;stroke:#ffffff;stroke-width:1pt;stroke-opacity:1"
         transform="scale(0.4,0.4)" />
    </marker>
    <marker
       inkscape:stockid="TriangleInM"
       orient="auto"
       refY="0"
       refX="0"
       id="TriangleInM"
       style="overflow:visible"
       inkscape:isstock="true">
      <path
         inkscape:connector-curvature="0"
         id="path4303"
         d="m 5.77,0 -8.65,5 0,-10 8.65,5 z"
         style="fill:#ffffff;fill-opacity:1;fill-rule:evenodd;stroke:#ffffff;stroke-width:1pt;stroke-opacity:1"
         transform="scale(-0.4,-0.4)" />
    </marker>
    <marker
       inkscape:stockid="TriangleOutM"
       orient="auto"
       refY="0"
       refX="0"
       id="TriangleOutM"
       style="overflow:visible"
       inkscape:isstock="true">
      <path
         inkscape:connector-curvature="0"
         id="path4312"
         d="m 5.77,0 -8.65,5 0,-10 8.65,5 z"
         style="fill:#ffffff;fill-opacity:1;fill-rule:evenodd;stroke:#ffffff;stroke-width:1pt;stroke-opacity:1"
         transform="scale(0.4,0.4)" />
    </marker>
    <marker
       inkscape:stockid="TriangleInM"
       orient="auto"
       refY="0"
       refX="0"
       id="TriangleInM-3-3"
       style="overflow:visible"
       inkscape:isstock="true">
      <path
         inkscape:connector-curvature="0"
         id="path4303-6-6"
         d="m 5.77,0 -8.65,5 0,-10 8.65,5 z"
         style="fill:#ffffff;fill-opacity:1;fill-rule:evenodd;stroke:#ffffff;stroke-width:1pt;stroke-opacity:1"
         transform="scale(-0.4,-0.4)" />
    </marker>
    <marker
       inkscape:stockid="TriangleOutM"
       orient="auto"
       refY="0"
       refX="0"
       id="TriangleOutM-7-7"
       style="overflow:visible"
       inkscape:isstock="true">
      <path
         inkscape:connector-curvature="0"
         id="path4312-5-5"
         d="m 5.77,0 -8.65,5 0,-10 8.65,5 z"
         style="fill:#ffffff;fill-opacity:1;fill-rule:evenodd;stroke:#ffffff;stroke-width:1pt;stroke-opacity:1"
         transform="scale(0.4,0.4)" />
    </marker>
    <marker
       inkscape:stockid="TriangleInM"
       orient="auto"
       refY="0"
       refX="0"
       id="TriangleInM-3-5"
       style="overflow:visible"
       inkscape:isstock="true">
      <path
         inkscape:connector-curvature="0"
         id="path4303-6-62"
         d="m 5.77,0 -8.65,5 0,-10 8.65,5 z"
         style="fill:#ffffff;fill-opacity:1;fill-rule:evenodd;stroke:#ffffff;stroke-width:1pt;stroke-opacity:1"
         transform="scale(-0.4,-0.4)" />
    </marker>
    <marker
       inkscape:stockid="TriangleOutM"
       orient="auto"
       refY="0"
       refX="0"
       id="TriangleOutM-7-9"
       style="overflow:visible"
       inkscape:isstock="true">
      <path
         inkscape:connector-curvature="0"
         id="path4312-5-1"
         d="m 5.77,0 -8.65,5 0,-10 8.65,5 z"
         style="fill:#ffffff;fill-opacity:1;fill-rule:evenodd;stroke:#ffffff;stroke-width:1pt;stroke-opacity:1"
         transform="scale(0.4,0.4)" />
    </marker>
    <marker
       inkscape:stockid="TriangleInM"
       orient="auto"
       refY="0"
       refX="0"
       id="TriangleInM-3-0"
       style="overflow:visible"
       inkscape:isstock="true">
      <path
         inkscape:connector-curvature="0"
         id="path4303-6-9"
         d="m 5.77,0 -8.65,5 0,-10 8.65,5 z"
         style="fill:#ffffff;fill-opacity:1;fill-rule:evenodd;stroke:#ffffff;stroke-width:1pt;stroke-opacity:1"
         transform="scale(-0.4,-0.4)" />
    </marker>
    <marker
       inkscape:stockid="TriangleOutM"
       orient="auto"
       refY="0"
       refX="0"
       id="TriangleOutM-7-3"
       style="overflow:visible"
       inkscape:isstock="true">
      <path
         inkscape:connector-curvature="0"
         id="path4312-5-6"
         d="m 5.77,0 -8.65,5 0,-10 8.65,5 z"
         style="fill:#ffffff;fill-opacity:1;fill-rule:evenodd;stroke:#ffffff;stroke-width:1pt;stroke-opacity:1"
         transform="scale(0.4,0.4)" />
    </marker>
    <marker
       inkscape:stockid="TriangleInM"
       orient="auto"
       refY="0"
       refX="0"
       id="TriangleInM-0"
       style="overflow:visible"
       inkscape:isstock="true">
      <path
         inkscape:connector-curvature="0"
         id="path4303-62"
         d="m 5.77,0 -8.65,5 0,-10 8.65,5 z"
         style="fill:#ffffff;fill-opacity:1;fill-rule:evenodd;stroke:#ffffff;stroke-width:1pt;stroke-opacity:1"
         transform="scale(-0.4,-0.4)" />
    </marker>
    <marker
       inkscape:stockid="TriangleOutM"
       orient="auto"
       refY="0"
       refX="0"
       id="TriangleOutM-6"
       style="overflow:visible"
       inkscape:isstock="true">
      <path
         inkscape:connector-curvature="0"
         id="path4312-1"
         d="m 5.77,0 -8.65,5 0,-10 8.65,5 z"
         style="fill:#ffffff;fill-opacity:1;fill-rule:evenodd;stroke:#ffffff;stroke-width:1pt;stroke-opacity:1"
         transform="scale(0.4,0.4)" />
    </marker>
    <marker
       inkscape:stockid="TriangleInM"
       orient="auto"
       refY="0"
       refX="0"
       id="TriangleInM-3-0-8"
       style="overflow:visible"
       inkscape:isstock="true">
      <path
         inkscape:connector-curvature="0"
         id="path4303-6-9-7"
         d="m 5.77,0 -8.65,5 0,-10 8.65,5 z"
         style="fill:#ffffff;fill-opacity:1;fill-rule:evenodd;stroke:#ffffff;stroke-width:1pt;stroke-opacity:1"
         transform="scale(-0.4,-0.4)" />
    </marker>
    <marker
       inkscape:stockid="TriangleOutM"
       orient="auto"
       refY="0"
       refX="0"
       id="TriangleOutM-7-3-9"
       style="overflow:visible"
       inkscape:isstock="true">
      <path
         inkscape:connector-curvature="0"
         id="path4312-5-6-2"
         d="m 5.77,0 -8.65,5 0,-10 8.65,5 z"
         style="fill:#ffffff;fill-opacity:1;fill-rule:evenodd;stroke:#ffffff;stroke-width:1pt;stroke-opacity:1"
         transform="scale(0.4,0.4)" />
    </marker>
  </defs>
  <path
     style="font-style:normal;font-variant:normal;font-weight:normal;font-stretch:normal;font-size:40px;line-height:125%;font-family:NPSPICT3;-inkscape-font-specification:NPSPICT3;text-align:start;writing-mode:lr-tb;text-anchor:start;fill:#ffffff;fill-opacity:1;stroke:none;stroke-width:1px;stroke-linecap:butt;stroke-linejoin:miter;stroke-opacity:1"
     d="m 7.9434198,1.4346322 c -0.1553586,0.00156 -0.3108965,0.038717 -0.4486906,0.1104984 l -0.0067,0.00335 -5.6270492,3.0018742 -0.00167,0.00167 C 1.3158039,4.8433233 1.1927836,5.69256 1.6299409,6.1274674 l 0.3733508,0.3733508 0,0.00167 C 2.1302455,6.6289308 2.326615,6.562282 2.5005347,6.604617 l 0,5.563429 0,0.0017 c 9.772e-4,0.517626 0.4718373,0.988485 0.9894633,0.989463 l 0.00167,0 0.7031719,0 0.00167,0 c 0.5176257,-9.43e-4 0.9884854,-0.471837 0.9894633,-0.989463 l 0,-0.0017 0,-2.6536367 c 0.030446,0.020668 0.050241,0.080371 0.078688,0.09543 l 0.2946625,0.175793 0.00167,0 c 0.00788,0.00463 0.026802,4.064e-4 0.035159,0.00506 l 0.026788,1.7478848 -0.6311805,1.354443 -0.00669,0.0134 c -0.045731,0.103002 -0.082197,0.201825 -0.1038016,0.33317 l 0,0.0051 c -0.046367,0.292424 0.031853,0.652272 0.2209969,0.902404 l 0,0.0017 c 0.1862684,0.245481 0.4961323,0.415257 0.780186,0.46041 l 0.00167,0 c 0.2165274,0.03365 0.4764359,0.02032 0.7165656,-0.0971 0.2401298,-0.117417 0.4227656,-0.32911 0.5223563,-0.53575 l 0.00335,-0.0067 0.3683282,-0.783534 0.046878,0.388419 0,0.01005 c 0.030408,0.226711 0.1369525,0.485326 0.3298212,0.673036 0.1928686,0.18771 0.4382475,0.280844 0.6562937,0.314753 l 0.013394,0.0033 c 0.3432069,0.04703 0.7486972,-0.0857 0.9995086,-0.32145 0.2547397,-0.239428 0.4119759,-0.667434 0.3649799,-1.017925 L 9.6377292,11.118313 c -0.00139,-0.01175 -0.00307,-0.02348 -0.00502,-0.03515 -0.068354,-0.393355 -0.2906397,-0.6111 -0.339866,-0.679737 l -0.32145,-0.445342 0.589325,0.284617 c 0.016468,0.0079 0.033222,0.01513 0.050227,0.02176 0.09353,0.03727 0.2158164,0.07367 0.3633054,0.07367 0.2496987,0 0.4974117,-0.145682 0.6847557,-0.306382 l 0,2.136303 0,0.0017 c 9.43e-4,0.517626 0.471837,0.988485 0.989463,0.989463 l 0.0017,0 0.701498,0 0.0017,0 c 0.517626,-9.43e-4 0.988485,-0.471837 0.989463,-0.989463 l 0,-0.0017 0,-5.5450122 c 0.202084,-0.035287 0.424969,0.027457 0.569155,-0.1188712 l 0.376699,-0.3833961 -0.0017,0 C 14.717906,5.6839775 14.59175,4.8418472 14.05097,4.5520275 l -0.0017,-0.00167 -5.6270086,-3.0018768 -0.00669,-0.00335 C 8.2704771,1.4694511 8.1070233,1.4322852 7.9434198,1.4346322 Z M 7.508123,5.6955189 C 7.3818765,5.8638351 7.3158662,6.061365 7.2703839,6.2697759 l -0.068643,-0.040181 -0.00335,-0.00167 C 7.032459,6.1305226 6.7580673,6.0452903 6.4784784,6.1207705 6.1932986,6.1977569 5.9968286,6.4194783 5.9058956,6.5912259 l -0.719914,1.2355735 0,-1.8567086 z m 2.2183395,0.1590508 0.9325405,0.1121727 0,2.4761695 C 10.543069,8.3480015 10.431161,8.234093 10.309091,8.1934533 L 10.438005,8.2503765 9.9759214,7.9908728 9.590851,7.52544 C 9.8459639,7.268117 10.00939,6.8874126 10.009405,6.5309541 10.009394,6.2864149 9.8532226,6.072875 9.7264625,5.8545697 Z"
     id="path4807"
     inkscape:connector-curvature="0"
     sodipodi:nodetypes="cccccccccccccccccccccccccccccccscccccsccccccccccscccccccccccccccccccccccccccccccccccc" />
</svg>

<svg width="16" height="16" viewBox="0 0 16 16" fill="none" xmlns="http://www.w3.org/2000/svg">
<path d="M7.94343 1.43461C7.78807 1.43617 7.63253 1.47333 7.49474 1.54511L7.48804 1.54846L1.86099 4.55034L1.85932 4.55201C1.31581 4.8433 1.19279 5.69254 1.62995 6.12745L2.0033 6.5008V6.50247C2.13025 6.62891 2.32662 6.56226 2.50054 6.6046V12.168V12.1697C2.50152 12.6874 2.97238 13.1582 3.49001 13.1592H3.49168H4.19485H4.19652C4.71414 13.1582 5.185 12.6874 5.18598 12.1697V12.168V9.51439C5.21643 9.53506 5.23622 9.59476 5.26467 9.60982L5.55933 9.78561H5.561C5.56888 9.79024 5.5878 9.78602 5.59616 9.79067L5.62295 11.5386L4.99177 12.893L4.98508 12.9064C4.93935 13.0094 4.90288 13.1082 4.88128 13.2396V13.2447C4.83491 13.5371 4.91313 13.8969 5.10227 14.1471V14.1488C5.28854 14.3943 5.59841 14.564 5.88246 14.6092H5.88413C6.10066 14.6428 6.36056 14.6295 6.60069 14.5121C6.84082 14.3947 7.02346 14.183 7.12305 13.9763L7.1264 13.9696L7.49473 13.1861L7.54161 13.5745V13.5846C7.57202 13.8113 7.67856 14.0699 7.87143 14.2576C8.0643 14.4453 8.30968 14.5385 8.52772 14.5724L8.54112 14.5757C8.88432 14.6227 9.28981 14.49 9.54062 14.2542C9.79536 14.0148 9.9526 13.5868 9.9056 13.2363L9.63774 11.1183C9.63635 11.1065 9.63467 11.0948 9.63272 11.0831C9.56436 10.6898 9.34208 10.472 9.29285 10.4034L8.9714 9.95807L9.56073 10.2427C9.57719 10.2506 9.59395 10.2578 9.61095 10.2644C9.70448 10.3017 9.82677 10.3381 9.97426 10.3381C10.224 10.3381 10.4717 10.1924 10.659 10.0317V12.168V12.1697C10.66 12.6874 11.1309 13.1582 11.6485 13.1592H11.6502H12.3517H12.3534C12.871 13.1583 13.3419 12.6874 13.3428 12.1697V12.168V6.62302C13.5449 6.58773 13.7678 6.65048 13.912 6.50415L14.2887 6.12075H14.287C14.7179 5.68396 14.5918 4.84183 14.051 4.55201L14.0493 4.55034L8.42227 1.54846L8.41558 1.54511C8.27048 1.46943 8.10703 1.43227 7.94343 1.43461ZM7.50813 5.6955C7.38188 5.86382 7.31587 6.06135 7.27039 6.26976L7.20175 6.22958L7.1984 6.22791C7.03247 6.1305 6.75807 6.04527 6.47849 6.12075C6.19331 6.19774 5.99684 6.41946 5.9059 6.59121L5.18599 7.82678V5.97007L7.50813 5.6955ZM9.72647 5.85455L10.659 5.96672V8.44289C10.5431 8.34798 10.4312 8.23407 10.3091 8.19343L10.438 8.25036L9.97593 7.99085L9.59086 7.52542C9.84597 7.2681 10.0094 6.88739 10.0094 6.53094C10.0094 6.2864 9.85323 6.07286 9.72647 5.85455Z" fill="white"/>
</svg>
